SVG_Azure_Grouped/Data/Azure Database for MariaDB.svg

<?xml version="1.0" encoding="UTF-8" standalone="no"?>
<!-- Generated by Microsoft Visio, SVG Export Azure Database for MariaDB.svg Page-1 -->

<svg
   xmlns:dc="http://purl.org/dc/elements/1.1/"
   xmlns:cc="http://creativecommons.org/ns#"
   xmlns:rdf="http://www.w3.org/1999/02/22-rdf-syntax-ns#"
   xmlns:svg="http://www.w3.org/2000/svg"
   xmlns="http://www.w3.org/2000/svg"
   xmlns:sodipodi="http://sodipodi.sourceforge.net/DTD/sodipodi-0.dtd"
   xmlns:inkscape="http://www.inkscape.org/namespaces/inkscape"
   width="0.59055233in"
   height="0.78748322in"
   viewBox="0 0 42.519769 56.699102"
   xml:space="preserve"
   class="st6"
   version="1.1"
   id="svg55"
   sodipodi:docname="Azure Database for MariaDB.svg"
   style="font-size:12px;overflow:visible;color-interpolation-filters:sRGB;fill:none;fill-rule:evenodd;stroke-linecap:square;stroke-miterlimit:3"
   inkscape:version="0.92.5 (2060ec1f9f, 2020-04-08)"><metadata
   id="metadata59"><rdf:RDF><cc:Work
       rdf:about=""><dc:format>image/svg+xml</dc:format><dc:type
         rdf:resource="http://purl.org/dc/dcmitype/StillImage" /></cc:Work></rdf:RDF></metadata><sodipodi:namedview
   pagecolor="#ffffff"
   bordercolor="#666666"
   borderopacity="1"
   objecttolerance="10"
   gridtolerance="10"
   guidetolerance="10"
   inkscape:pageopacity="0"
   inkscape:pageshadow="2"
   inkscape:window-width="640"
   inkscape:window-height="480"
   id="namedview57"
   showgrid="false"
   inkscape:zoom="1.4193119"
   inkscape:cx="28.346509"
   inkscape:cy="37.786193"
   inkscape:window-x="0"
   inkscape:window-y="0"
   inkscape:window-maximized="0"
   inkscape:current-layer="svg55" />
	<style
   type="text/css"
   id="style2">
	<![CDATA[
		.st1 {fill:url(#grad0-6);stroke:none;stroke-linecap:butt;stroke-width:34}
		.st2 {fill:#e8e8e8;stroke:none;stroke-linecap:butt;stroke-width:34}
		.st3 {fill:#50e6ff;stroke:none;stroke-linecap:butt;stroke-width:34}
		.st4 {fill:#198ab3;stroke:none;stroke-linecap:butt;stroke-width:34}
		.st5 {fill:#f2f2f2;stroke:none;stroke-linecap:butt;stroke-width:34}
		.st6 {fill:none;fill-rule:evenodd;font-size:12px;overflow:visible;stroke-linecap:square;stroke-miterlimit:3}
	]]>
	</style>

	<defs
   id="Patterns_And_Gradients">
		<linearGradient
   id="grad0-6"
   x1="0"
   y1="70.5925"
   x2="45.626519"
   y2="70.5925"
   gradientTransform="scale(0.93191419,1.0730602)"
   gradientUnits="userSpaceOnUse">
			<stop
   offset="0"
   stop-color="#005ba1"
   stop-opacity="1"
   id="stop4" />
			<stop
   offset="0.07"
   stop-color="#0060a9"
   stop-opacity="1"
   id="stop6" />
			<stop
   offset="0.36"
   stop-color="#0071c8"
   stop-opacity="1"
   id="stop8" />
			<stop
   offset="0.52"
   stop-color="#0078d4"
   stop-opacity="1"
   id="stop10" />
			<stop
   offset="0.64"
   stop-color="#0074cd"
   stop-opacity="1"
   id="stop12" />
			<stop
   offset="0.82"
   stop-color="#006abb"
   stop-opacity="1"
   id="stop14" />
			<stop
   offset="1"
   stop-color="#005ba1"
   stop-opacity="1"
   id="stop16" />
		</linearGradient>
	</defs>
	<g
   id="g53"
   transform="translate(-34.000303,-33.9952)">
		<title
   id="title20">Page-1</title>
		<g
   id="group19690-1"
   transform="translate(34,-34.0157)">
			<title
   id="title22">Azure Database for MariaDB.19690</title>
			<g
   id="group19691-2">
				<title
   id="title24">Icon-databases-123</title>
				<g
   id="shape19692-3">
					<title
   id="title26">Sheet.19692</title>
					<path
   d="M 21.26,83.49 C 9.52,83.49 0,80.15 0,75.75 v 41.22 c 0,4.24 9.35,7.67 20.96,7.74 h 0.3 c 11.74,0 21.26,-3.34 21.26,-7.74 V 75.75 c 0,4.3 -9.52,7.74 -21.26,7.74 z"
   class="st1"
   id="path28"
   inkscape:connector-curvature="0"
   style="fill:url(#grad0-6);stroke:none;stroke-width:34;stroke-linecap:butt" />
				</g>
				<g
   id="shape19693-7"
   transform="translate(0,-41.2191)">
					<title
   id="title31">Sheet.19693</title>
					<path
   d="m 42.52,116.97 c 0,4.3 -9.52,7.74 -21.26,7.74 C 9.52,124.71 0,121.37 0,116.97 c 0,-4.4 9.52,-7.74 21.26,-7.74 11.74,0 21.26,3.34 21.26,7.74 z"
   class="st2"
   id="path33"
   inkscape:connector-curvature="0"
   style="fill:#e8e8e8;stroke:none;stroke-width:34;stroke-linecap:butt" />
				</g>
				<g
   id="shape19694-9"
   transform="translate(4.94184,-44.654)">
					<title
   id="title36">Sheet.19694</title>
					<path
   d="m 32.64,119.77 c 0,2.74 -7.33,4.94 -16.32,4.94 -8.99,0 -16.32,-2.2 -16.32,-4.94 0,-2.73 7.33,-4.9 16.32,-4.9 8.99,0 16.32,2.2 16.32,4.9 z"
   class="st3"
   id="path38"
   inkscape:connector-curvature="0"
   style="fill:#50e6ff;stroke:none;stroke-width:34;stroke-linecap:butt" />
				</g>
				<g
   id="shape19695-11"
   transform="translate(8.358,-44.654)">
					<title
   id="title41">Sheet.19695</title>
					<path
   d="m 12.9,121.01 a 38.3075,38.5178 -180 0 0 -12.9,1.9 37.8763,38.0843 -180 0 0 12.9,1.8 36.9808,37.1839 -180 0 0 12.9,-1.94 39.2694,39.4849 -180 0 0 -12.9,-1.76 z"
   class="st4"
   id="path43"
   inkscape:connector-curvature="0"
   style="fill:#198ab3;stroke:none;stroke-width:34;stroke-linecap:butt" />
				</g>
				<g
   id="shape19696-13"
   transform="translate(3.4825,-13.7063)">
					<title
   id="title46">Sheet.19696</title>
					<path
   d="m 35.19,101.13 c -1.09,0 0.2,0.83 -3.68,1 -3.88,0.17 -5.24,4.17 -7.76,7.54 a 16.3512,16.4409 0 0 1 -9.95,4.7 12.1722,12.239 -180 0 0 -6.24,4.64 3.05133,3.06809 0 0 1 -2.35,1.73 c -0.9,0 -2.86,0.27 -2.86,0.27 A 11.144,11.2052 -180 0 0 0,121.81 c 0.27,1.1 2.45,0.63 2.45,0.63 a 17.4125,17.5081 0 0 1 -1.72,1.57 9.28667,9.33766 -180 0 0 3.32,0.17 c 1.42,0 2.52,-1.37 5.14,-2.81 2.62,-1.43 8.65,0 9.62,0 0.96,0 2.38,-2.53 2.72,-3.33 0.26,1.8 -2.72,6.67 -2.72,6.67 a 6.99817,7.03659 -180 0 0 5.5,-3.34 c 0.27,-0.33 1.1,-2.06 1.2,-1.9 0.09,0.17 0.53,0.64 0.69,0.57 a 6.23534,6.26957 -180 0 0 0.83,-0.9 25.1403,25.2784 -180 0 0 3.78,-8.27 c 0.23,-0.8 0.23,-3.7 2.22,-4.9 1.99,-1.2 2.26,-2.3 2.26,-2.4 v -0.17 a 5.40617,5.43585 0 0 1 -1.29,-1.17 0.364833,0.366836 0 0 1 0,-0.36684 2.55383,2.56786 -180 0 0 1.59,1.26684 c 0,0 0.69,-2 -0.4,-2 z m -4.15,3.54 h -0.19 a 1.194,1.20056 0 0 1 -1,-0.27 1.592,1.60074 0 0 1 1.72,-1 0.995,1.00046 0 0 1 -0.530667,1.26725 z m 1.86,0 a 9.31984,9.37101 0 0 1 1.1,-1.94 10.348,10.4048 -180 0 0 -1.16,2.07 z m 1.2,-1.7 a 6.00317,6.03613 -180 0 0 -0.27,1.7 5.60517,5.63594 0 0 1 0,-1.27 4.64334,4.66883 -180 0 0 -0.53,1.3 4.44434,4.46874 0 0 1 0.73,-1.6 z m -5.68,15.5 c 0,0 -1.62,1.54 -1.69,2.07 -0.06,0.53 1.79,1.37 2.95,1.07 a 25.1403,25.2784 0 0 1 -1.26,-3.14 z"
   class="st5"
   id="path48"
   inkscape:connector-curvature="0"
   style="fill:#f2f2f2;stroke:none;stroke-width:34;stroke-linecap:butt" />
				</g>
			</g>
		</g>
	</g>
</svg>

<?xml version="1.0" encoding="UTF-8" standalone="no"?>
<!DOCTYPE svg PUBLIC "-//W3C//DTD SVG 1.1//EN" "http://www.w3.org/Graphics/SVG/1.1/DTD/svg11.dtd">
<!-- Generated by Microsoft Visio, SVG Export Azure Database for MariaDB.svg Page-1 -->
<svg xmlns="http://www.w3.org/2000/svg" xmlns:xlink="http://www.w3.org/1999/xlink" xmlns:ev="http://www.w3.org/2001/xml-events"
		width="1.535in" height="1.73206in" viewBox="0 0 110.52 124.709" xml:space="preserve" color-interpolation-filters="sRGB"
		class="st6">
	<style type="text/css">
	<![CDATA[
		.st1 {fill:url(#grad0-6);stroke:none;stroke-linecap:butt;stroke-width:34}
		.st2 {fill:#e8e8e8;stroke:none;stroke-linecap:butt;stroke-width:34}
		.st3 {fill:#50e6ff;stroke:none;stroke-linecap:butt;stroke-width:34}
		.st4 {fill:#198ab3;stroke:none;stroke-linecap:butt;stroke-width:34}
		.st5 {fill:#f2f2f2;stroke:none;stroke-linecap:butt;stroke-width:34}
		.st6 {fill:none;fill-rule:evenodd;font-size:12px;overflow:visible;stroke-linecap:square;stroke-miterlimit:3}
	]]>
	</style>

	<defs id="Patterns_And_Gradients">
		<linearGradient id="grad0-6" x1="0" y1="0" x2="1" y2="0" gradientTransform="rotate(0 0.5 0.5)">
			<stop offset="0" stop-color="#005ba1" stop-opacity="1"/>
			<stop offset="0.07" stop-color="#0060a9" stop-opacity="1"/>
			<stop offset="0.36" stop-color="#0071c8" stop-opacity="1"/>
			<stop offset="0.52" stop-color="#0078d4" stop-opacity="1"/>
			<stop offset="0.64" stop-color="#0074cd" stop-opacity="1"/>
			<stop offset="0.82" stop-color="#006abb" stop-opacity="1"/>
			<stop offset="1" stop-color="#005ba1" stop-opacity="1"/>
		</linearGradient>
	</defs>
	<g>
		<title>Page-1</title>
		<g id="group19241-1" transform="translate(34,-34.0157)">
			<title>Azure Database for MariaDB.19241</title>
			<g id="group19242-2">
				<title>Icon-databases-123</title>
				<g id="shape19243-3">
					<title>Sheet.19243</title>
					<path d="M21.26 83.49 C9.52 83.49 0 80.15 0 75.75 L0 116.97 C0 121.21 9.35 124.64 20.96 124.71 L21.26 124.71
								 C33 124.71 42.52 121.37 42.52 116.97 L42.52 75.75 C42.52 80.05 33 83.49 21.26 83.49 Z" class="st1"/>
				</g>
				<g id="shape19244-7" transform="translate(0,-41.2191)">
					<title>Sheet.19244</title>
					<path d="M42.52 116.97 C42.52 121.27 33 124.71 21.26 124.71 C9.52 124.71 0 121.37 0 116.97 C0 112.57 9.52 109.23
								 21.26 109.23 C33 109.23 42.52 112.57 42.52 116.97 Z" class="st2"/>
				</g>
				<g id="shape19245-9" transform="translate(4.94184,-44.654)">
					<title>Sheet.19245</title>
					<path d="M32.64 119.77 C32.64 122.51 25.31 124.71 16.32 124.71 C7.33 124.71 0 122.51 0 119.77 C0 117.04 7.33
								 114.87 16.32 114.87 C25.31 114.87 32.64 117.07 32.64 119.77 Z" class="st3"/>
				</g>
				<g id="shape19246-11" transform="translate(8.358,-44.654)">
					<title>Sheet.19246</title>
					<path d="M12.9 121.01 A38.3075 38.5178 -180 0 0 0 122.91 A37.8763 38.0843 -180 0 0 12.9 124.71 A36.9808 37.1839
								 -180 0 0 25.8 122.77 A39.2694 39.4849 -180 0 0 12.9 121.01 Z" class="st4"/>
				</g>
				<g id="shape19247-13" transform="translate(3.4825,-13.7063)">
					<title>Sheet.19247</title>
					<path d="M35.19 101.13 C34.1 101.13 35.39 101.96 31.51 102.13 C27.63 102.3 26.27 106.3 23.75 109.67 A16.3512
								 16.4409 0 0 1 13.8 114.37 A12.1722 12.239 -180 0 0 7.56 119.01 A3.05133 3.06809 0 0 1 5.21 120.74
								 C4.31 120.74 2.35 121.01 2.35 121.01 A11.144 11.2052 -180 0 0 -0 121.81 C0.27 122.91 2.45 122.44
								 2.45 122.44 A17.4125 17.5081 0 0 1 0.73 124.01 A9.28667 9.33766 -180 0 0 4.05 124.18 C5.47 124.18
								 6.57 122.81 9.19 121.37 C11.81 119.94 17.84 121.37 18.81 121.37 C19.77 121.37 21.19 118.84 21.53
								 118.04 C21.79 119.84 18.81 124.71 18.81 124.71 A6.99817 7.03659 -180 0 0 24.31 121.37 C24.58 121.04
								 25.41 119.31 25.51 119.47 C25.6 119.64 26.04 120.11 26.2 120.04 A6.23534 6.26957 -180 0 0 27.03
								 119.14 A25.1403 25.2784 -180 0 0 30.81 110.87 C31.04 110.07 31.04 107.17 33.03 105.97 C35.02 104.77
								 35.29 103.67 35.29 103.57 L35.29 103.4 A5.40617 5.43585 0 0 1 34 102.23 a0.364833 0.366836 0 0 1
								 6.39488E-14 -0.366836 A2.55383 2.56786 -180 0 0 35.59 103.13 C35.59 103.13 36.28 101.13 35.19 101.13
								 ZM31.04 104.67 L30.85 104.67 A1.194 1.20056 0 0 1 29.85 104.4 A1.592 1.60074 0 0 1 31.57 103.4 a0.995
								 1.00046 0 0 1 -0.530667 1.26725 ZM32.9 104.67 A9.31984 9.37101 0 0 1 34 102.73 A10.348 10.4048 -180
								 0 0 32.84 104.8 L32.9 104.67 ZM34.1 102.97 A6.00317 6.03613 -180 0 0 33.83 104.67 A5.60517 5.63594
								 0 0 1 33.83 103.4 A4.64334 4.66883 -180 0 0 33.3 104.7 A4.44434 4.46874 0 0 1 34.03 103.1 L34.1
								 102.97 ZM28.42 118.47 C28.42 118.47 26.8 120.01 26.73 120.54 C26.67 121.07 28.52 121.91 29.68 121.61
								 A25.1403 25.2784 0 0 1 28.42 118.47 Z" class="st5"/>
				</g>
			</g>
		</g>
	</g>
</svg>
